X:1
T:Title
%%score 1 ( 2 3 ) ( 4 5 )
L:1/8
Q:1/4=105
M:4/4
K:D
V:1 treble nm="Violin, Staff-1"
V:2 treble nm="Grand Piano, Soprano"
V:3 treble 
V:4 bass nm="Choir Pad, Blessèd Are Peacemakers"
V:5 bass 
V:1
 z8 | z8 | z8 | z8 | z8 | z8 | z8 | z8 | C3 D E2 A,2 | A,3 B, A,2 z D | D3 C EDCB, | A,8 | z8 | %13
 z8 | z8 | z8 | z8 | z8 | z8 | z8 | z8 | z8 | z8 | z8 | z8 | z8 | z8 | z8 |] %28
V:2
 z2 [DF][DF] [CG]2 [DA]2 | [DB]3 [DB] [DA]2 z [DA] | [Fd]2 [DF]2 [CA]3 [CA] | D8 | %4
 z2 [DF][DF] [CG]2 [DA]2 | [DB]3 [DB] [DA]2 z [DA] | [Ec]2 [CA]2 [DB]2 [D^G]2 | [CA]8 | %8
 z A,[CG]A, z A,[CG]A, | z A,[DF]A, z A,[DF]A, | z A,[CG]A, z A,[CG]A, | z B,[DG]B, z B,[DG]B, | %12
 z2 [DF][DF] [CG]2 [DA]2 | [DB]3 [DB] [DA]2 [=Fd]2 | [Fd]2 [DF]2 [CA]3 [CA] | D8 | %16
 [GA]3 [GB] cded | [Gc]3 [GB] [GA]2 z [GA] | [Fd]3 [Fc] edD-[DF] | [EA]8 | [GA]3 [GB] cded | %21
 [Gc]3 [GB] [GA]2 z [GA] | [Fd]2 [FA][DF] [CA]3 [CA] | D8 | [DB]6 [DB]2 | [Gc]8 | [Fd]6 [Fd]2 | %27
 D8 |] %28
V:3
 x8 | x8 | x8 | x8 | x8 | x8 | x8 | x8 | x8 | x8 | x8 | x8 | x8 | x8 | x8 | x8 | z4 G2 G2 | x8 | %18
 z4 F2 .A2 | x8 | z4 G2 G2 | x8 | x8 | x8 | x8 | x8 | x8 | x8 |] %28
V:4
 z2 [D,A,][D,A,] [E,A,]2 [F,A,]2 | G,3 G, [F,A,]2 z [F,A,] | [D,A,]2 [D,A,]2 [A,,G,]3 [A,,G,] | %3
 [D,F,]8 | z2 [D,A,][D,A,] [E,A,]2 [F,A,]2 | G,3 G, [F,A,]2 z [F,A,] | %6
 [E,A,]2 [E,A,]2 [E,^G,]2 [E,B,]2 | [A,,A,]8 | A,,2 z2 A,,2 z2 | D,2 z2 D,2 z2 | G,2 z2 G,2 z2 | %11
 D,2 z2 D,2 z2 | .[D,,D,]2 [D,A,][D,A,] [E,A,]2 [F,A,]2 | G,3 G, [F,A,]2 [^G,B,]2 | %14
 A,2 A,2 [A,,G,]3 [A,,G,] | [D,F,]8 | [A,C]3 [A,D] EDCE | [A,E]3 [A,D] [A,C]2 z [A,C] | %18
 [D,D]3 [D,D] [D,A,]2 D,-[D,A,] | [A,C]8 | [A,C]3 [A,D] EDCD | [A,E]3 [B,E] [CE]2 z[K:bass] [A,C] | %22
 z2 .D2 z4 | [D,F,]8 | G,6 G,2 | [E,A,]8 | [D,A,]6 [D,A,]2 | D,8 |] %28
V:5
 x8 | x8 | x8 | x8 | x8 | x8 | x8 | x8 | x8 | x8 | x8 | x8 | x8 | x8 | x8 | x8 | z4 A,2 B,2 | x8 | %18
 z4 z2 .F,2 | x8 | z4 A,2 A,2 | x7[K:bass] x | [D,D]2 D,-[D,A,] [A,,G,]3 [A,,G,] | x8 | x8 | x8 | %26
 x8 | x8 |] %28

